packages/tokens/icons/rocket/size32Px.svg

<svg viewBox="0 0 32 32" fill="none" xmlns="http://www.w3.org/2000/svg" width="1em" height="1em"><path d="M11.5 17.5H21" stroke="currentColor"/><path d="M12.5 7L19.5 7" stroke="currentColor"/><path d="M11.5 10.6278C11.5 8.40112 12.2821 6.24523 13.7098 4.53653L14.858 3.16232C15.4586 2.44347 16.5639 2.4449 17.1627 3.16531L18.306 4.54088C19.7238 6.24676 20.5 8.39501 20.5 10.6132L20.5 20C20.5 20.2761 20.2761 20.5 20 20.5L12 20.4999C11.7239 20.4999 11.5 20.2761 11.5 19.9999L11.5 10.6278Z" stroke="currentColor"/><path d="M24.5 13.193C24.5 12.9846 24.3707 12.798 24.1756 12.7248L20.5 11.3465V19.2785L23.8244 20.5252C24.1513 20.6477 24.5 20.4061 24.5 20.057V13.193Z" stroke="currentColor"/><path d="M7.5 13.193C7.5 12.9846 7.62929 12.798 7.82444 12.7248L11.5 11.3465L11.5 19.2785L8.17556 20.5252C7.84869 20.6477 7.5 20.4061 7.5 20.057L7.5 13.193Z" stroke="currentColor"/><circle cx="16" cy="12" r="2.5" stroke="currentColor"/><path d="M11.0715 23.5L12.5001 20.5H19.643L21.0715 23.5H11.0715Z" stroke="currentColor" stroke-linejoin="round"/><path d="M13.5 26.5L13.5 29.5M18.5 26.5V29.5M16 26.5L16 29.5" stroke="currentColor" stroke-linecap="round"/></svg>

<svg xmlns="http://www.w3.org/2000/svg" fill="none" viewBox="0 0 32 32" width="1em" height="1em"><path stroke="currentColor" d="M11.5 17.5H21M12.5 7h7m-8 3.628a9.5 9.5 0 0 1 2.21-6.091l1.148-1.375a1.5 1.5 0 0 1 2.305.003l1.143 1.376a9.5 9.5 0 0 1 2.194 6.072V20a.5.5 0 0 1-.5.5h-8a.5.5 0 0 1-.5-.5v-9.372Z"/><path stroke="currentColor" d="M24.5 13.193a.5.5 0 0 0-.324-.468L20.5 11.347v7.932l3.324 1.246a.5.5 0 0 0 .676-.468v-6.864Zm-17 0a.5.5 0 0 1 .324-.468l3.676-1.378v7.932l-3.324 1.246a.5.5 0 0 1-.676-.468v-6.864Z"/><circle cx="16" cy="12" r="2.5" stroke="currentColor"/><path stroke="currentColor" stroke-linejoin="round" d="m11.072 23.5 1.428-3h7.143l1.428 3h-10Z"/><path stroke="currentColor" stroke-linecap="round" d="M13.5 26.5v3m5-3v3m-2.5-3v3"/></svg>
